X: 1
T: Ships are Sailing
%D:1883
R: march
%S: s:4 b:16(4+4+4+4)
S: Fiddle Hell Online 2021-04-15 Rodney Miller jam handout
B: Ryan's "Mammoth Collection" p.36 1883
B: O'Neill "Music of Ireland: 1850 Melodies" 1903 p.237 #1264
B: O'Neill "DanceMusic of Ireland: 1001 Gems" 1907 p.99 #532
Z: 2021 John Chambers <jc:trillian.mit.edu>
M: C|
L: 1/8
K: Edor
|: "Em"Beed BcdB | "D"A2FD ADFD | "Em"E^DEF GFGA | Beef "Bm"gfed |
y  "Em"Beed BdcB | "D"A2(3FED ADFD | "Em"E^DEF GFGA | "Bm"Bee^d "Em"e4 :|
|: "Em"gfga bgeg | "D"fefg afdf | "Em"gfga bgeg | "D"afdf "Em"e2ef |
y  "Em"gfga bgeg | "D"fefg afdf | "G"g2bg "D"f2af | "Em"edef "Bm"gfed :|
%%text The sharped D notes are often not sharped.
